resources/svg/virus-slash-o.svg

<svg xmlns="http://www.w3.org/2000/svg" data-name="Layer 1" viewBox="0 0 24 24" fill="currentColor" stroke="none"><path d="M10.16943,5.23633A7.51405,7.51405,0,0,1,11,5.07751V6.34814a1,1,0,1,0,2,0v-1.277a6.94554,6.94554,0,0,1,3.9491,1.98022l.00061.00092.00134.00091A6.98718,6.98718,0,0,1,18.921,11.002H18a1,1,0,0,0,0,2h.922a7.64958,7.64958,0,0,1-.16028.82666.99981.99981,0,0,0,.71875,1.21778.98343.98343,0,0,0,.25.03173,1.0002,1.0002,0,0,0,.96777-.75048,9.59392,9.59392,0,0,0,.23621-1.32569H22a1,1,0,0,0,0-2H20.94073A8.93293,8.93293,0,0,0,19.028,6.38824l.7503-.75006a.99989.99989,0,0,0-1.41406-1.41406l-.75287.75263A8.911,8.911,0,0,0,13,3.06763V1.99805a1,1,0,1,0-2,0V3.06372a9.47345,9.47345,0,0,0-1.32959.23608.9999.9999,0,0,0,.499,1.93653ZM14,9.002a1,1,0,1,0,1-1A1,1,0,0,0,14,9.002Zm4.3772,7.96314-.00757-.01148-.01178-.00787L2.707,1.29492A.99989.99989,0,0,0,1.293,2.709l3.67889,3.6789A8.93173,8.93173,0,0,0,3.05927,11.002H2a1,1,0,0,0,0,2H3.06006a8.94838,8.94838,0,0,0,1.91138,4.61451l-.74976.74975a.99989.99989,0,1,0,1.41406,1.41406l.74988-.74987A8.94628,8.94628,0,0,0,11,20.93854V22.002a1,1,0,0,0,2,0V20.93854a8.94628,8.94628,0,0,0,4.61438-1.90814L21.293,22.709A.99989.99989,0,0,0,22.707,21.29492ZM13,18.91888V17.002a1,1,0,0,0-2,0v1.917a6.98552,6.98552,0,0,1-3.945-1.96021l-.0047-.00708-.00683-.00452A6.99374,6.99374,0,0,1,5.07971,13.002H6a1,1,0,0,0,0-2H5.0788A6.94294,6.94294,0,0,1,6.39948,7.81549L8.25305,9.66907a1.49935,1.49935,0,0,0,2.07984,2.07983l5.8529,5.85291A6.95663,6.95663,0,0,1,13,18.91888ZM9,14.002a1,1,0,1,0,1,1A1,1,0,0,0,9,14.002Z"/></svg>

<svg xmlns="http://www.w3.org/2000/svg" data-name="Layer 1" viewBox="0 0 24 24" fill="currentColor" stroke="none"><path d="M10.17 5.236a7.514 7.514 0 0 1 .83-.158v1.27a1 1 0 1 0 2 0V5.071a6.946 6.946 0 0 1 3.95 1.98v.001l.001.001a6.987 6.987 0 0 1 1.97 3.949H18a1 1 0 0 0 0 2h.922a7.65 7.65 0 0 1-.16.827 1 1 0 0 0 .718 1.217.983.983 0 0 0 .25.032 1 1 0 0 0 .968-.75 9.594 9.594 0 0 0 .236-1.326H22a1 1 0 0 0 0-2h-1.06a8.933 8.933 0 0 0-1.912-4.614l.75-.75a1 1 0 0 0-1.414-1.414l-.753.753A8.911 8.911 0 0 0 13 3.067V1.999a1 1 0 1 0-2 0v1.066a9.473 9.473 0 0 0-1.33.236 1 1 0 0 0 .5 1.936ZM14 9.002a1 1 0 1 0 1-1 1 1 0 0 0-1 1Zm4.377 7.963-.007-.011-.012-.008L2.707 1.295a1 1 0 0 0-1.414 1.414l3.679 3.679a8.932 8.932 0 0 0-1.913 4.614H2a1 1 0 0 0 0 2h1.06a8.948 8.948 0 0 0 1.911 4.615l-.75.75a1 1 0 1 0 1.415 1.413l.75-.75A8.946 8.946 0 0 0 11 20.94v1.063a1 1 0 0 0 2 0v-1.063a8.946 8.946 0 0 0 4.614-1.909l3.679 3.679a1 1 0 0 0 1.414-1.414ZM13 18.92v-1.917a1 1 0 0 0-2 0v1.917a6.986 6.986 0 0 1-3.945-1.96l-.005-.007-.007-.005a6.994 6.994 0 0 1-1.963-3.945H6a1 1 0 0 0 0-2h-.921a6.943 6.943 0 0 1 1.32-3.187L8.253 9.67a1.5 1.5 0 0 0 2.08 2.08l5.853 5.853A6.957 6.957 0 0 1 13 18.919Zm-4-4.917a1 1 0 1 0 1 1 1 1 0 0 0-1-1Z"/></svg>
